; generated by PrusaSlicer 2.4.1+x64 on 2022-03-21 at 16:17:10 UTC

; 

; external perimeters extrusion width = 0.60mm
; perimeters extrusion width = 0.50mm
; infill extrusion width = 0.50mm
; solid infill extrusion width = 0.50mm
; top infill extrusion width = 0.45mm
; support material extrusion width = 0.38mm
; first layer extrusion width = 0.42mm

M73 P0 R47
M73 Q0 S47
M201 X1000 Y1000 Z200 E5000 ; sets maximum accelerations, mm/sec^2
M203 X200 Y200 Z12 E120 ; sets maximum feedrates, mm / sec
M204 P1250 R1250 T1250 ; sets acceleration (P, T) and retract acceleration (R), mm/sec^2
M205 X8.00 Y8.00 Z0.40 E4.50 ; sets the jerk limits, mm/sec
M205 S0 T0 ; sets the minimum extruding and travel feed rate, mm/sec
M107
;TYPE:Custom
M862.3 P "MK3S" ; printer model check
M862.1 P0.4 ; nozzle diameter check
M115 U3.10.1 ; tell printer latest fw version
G90 ; use absolute coordinates
M83 ; extruder relative mode
M104 S215 ; set extruder temp
M140 S60 ; set bed temp
M190 S60 ; wait for bed temp
M109 S215 ; wait for extruder temp
G28 W ; home all without mesh bed level
G80 ; mesh bed leveling
G1 Z0.2 F720
G1 Y-3 F1000 ; go outside print area
G92 E0
G1 X60 E9 F1000 ; intro line
G1 X100 E12.5 F1000 ; intro line
G92 E0
M221 S95

; Don't change E values below. Excessive value can damage the printer.

M907 E538 ; set extruder motor current
G21 ; set units to millimeters
G90 ; use absolute coordinates
M83 ; use relative distances for extrusion
M900 K0.05 ; Filament gcode LA 1.5
M900 K30 ; Filament gcode LA 1.0
M107
;LAYER_CHANGE
;Z:0.2
;HEIGHT:0.2
;BEFORE_LAYER_CHANGE
G92 E0.0
;0.2


G1 E-.8 F2100
G1 Z.4 F720
;AFTER_LAYER_CHANGE
;0.2
G1 X83.015 Y63.693 F10800
G1 Z.2 F720
G1 E.8 F2100
M204 S800
;TYPE:Skirt/Brim
;WIDTH:0.42
G1 F1200
G1 X83.682 Y63.022 E.02969
G1 X90.631 Y58.393 E.2618
G1 X91.949 Y57.994 E.04317
G1 X158.051 Y57.994 E2.07257
G1 X159.369 Y58.393 E.04317
G1 X166.318 Y63.022 E.2618
G1 X167.189 Y64.072 E.04278
G1 X167.377 Y65 E.02969
G1 X167.377 Y145 E2.50834
G1 X166.985 Y146.307 E.04278
G1 X165.94 Y147.183 E.04278
G1 X165 Y147.377 E.03008
G1 X85 Y147.377 E2.50834
G1 X83.693 Y146.985 E.04278
G1 X82.817 Y145.94 E.04278
G1 X82.623 Y145 E.03008
G1 X82.623 Y65 E2.50834
G1 X82.997 Y63.75 E.0409
M204 S1000
; printing object cable-case.stl id:0 copy 0
;WIPE_START
G1 F8640
G1 X83.682 Y63.022 E-.23094
G1 X85.589 Y61.751 E-.52906
;WIPE_END
G1 E-.04 F2100
G1 Z.6 F720
G1 X104.792 Y64.43 F10800
G1 Z.2 F720
G1 E.8 F2100
M204 S800
;TYPE:Support material
G1 F1200
G1 X91.949 Y64.43 E.40266
G1 X91.949 Y60.371 E.12726
G1 X104.792 Y60.371 E.40266
G1 X104.792 Y64.373 E.12549
M204 S1000
G1 X104.051 Y64.26 F10800
M204 S800
G1 F1200
G1 X104.051 Y60.711 E.1113
G1 X103.632 Y60.711 E.01314
G1 X103.632 Y64.091 E.10598
G1 X103.213 Y64.091 E.01314
G1 X103.213 Y60.711 E.10598
G1 X102.794 Y60.711 E.01314
G1 X102.794 Y64.091 E.10598
G1 X102.375 Y64.091 E.01314
G1 X102.375 Y60.711 E.10598
G1 X101.956 Y60.711 E.01314
G1 X101.956 Y64.091 E.10598
G1 X101.537 Y64.091 E.01314
G1 X101.537 Y60.711 E.10598
G1 X101.118 Y60.711 E.01314
G1 X101.118 Y64.091 E.10598
G1 X100.699 Y64.091 E.01314
G1 X100.699 Y60.711 E.10598
G1 X100.28 Y60.711 E.01314
G1 X100.28 Y64.091 E.10598
G1 X99.861 Y64.091 E.01314
G1 X99.861 Y60.711 E.10598
G1 X99.442 Y60.711 E.01314
G1 X99.442 Y64.091 E.10598
M73 Q1 S47
G1 X99.023 Y64.091 E.01314
M73 P1 R47
G1 X99.023 Y60.711 E.10598
G1 X98.604 Y60.711 E.01314
G1 X98.604 Y64.091 E.10598
G1 X98.185 Y64.091 E.01314
G1 X98.185 Y60.711 E.10598
G1 X97.766 Y60.711 E.01314
G1 X97.766 Y64.091 E.10598
G1 X97.348 Y64.091 E.01314
G1 X97.348 Y60.711 E.10598
G1 X96.929 Y60.711 E.01314
G1 X96.929 Y64.091 E.10598
G1 X96.51 Y64.091 E.01314
G1 X96.51 Y60.711 E.10598
G1 X96.091 Y60.711 E.01314
G1 X96.091 Y64.091 E.10598
G1 X95.672 Y64.091 E.01314
G1 X95.672 Y60.711 E.10598
G1 X95.253 Y60.711 E.01314
G1 X95.253 Y64.091 E.10598
G1 X94.834 Y64.091 E.01314
G1 X94.834 Y60.711 E.10598
G1 X94.415 Y60.711 E.01314
G1 X94.415 Y64.091 E.10598
G1 X93.996 Y64.091 E.01314
G1 X93.996 Y60.711 E.10598
G1 X93.577 Y60.711 E.01314
G1 X93.577 Y64.091 E.10598
G1 X93.158 Y64.091 E.01314
G1 X93.158 Y60.711 E.10598
G1 X92.739 Y60.711 E.01314
G1 X92.739 Y64.091 E.10598
G1 X92.32 Y64.091 E.01314
G1 X92.32 Y60.541 E.1113
M204 S1000
;WIPE_START
G1 F8640
G1 X92.32 Y63.832 E-.76
;WIPE_END
G1 E-.04 F2100
G1 Z.6 F720
G1 X158.051 Y64.43 F10800
G1 Z.2 F720
G1 E.8 F2100
M204 S800
G1 F1200
G1 X145.208 Y64.43 E.40266
G1 X145.208 Y60.371 E.12726
G1 X158.051 Y60.371 E.40266
G1 X158.051 Y64.373 E.12549
M204 S1000
G1 X157.68 Y64.26 F10800
M204 S800
G1 F1200
G1 X157.68 Y60.711 E.1113
G1 X157.261 Y60.711 E.01314
M73 P1 R46
G1 X157.261 Y64.091 E.10598
G1 X156.842 Y64.091 E.01314
G1 X156.842 Y60.711 E.10598
G1 X156.423 Y60.711 E.01314
G1 X156.423 Y64.091 E.10598
G1 X156.004 Y64.091 E.01314
G1 X156.004 Y60.711 E.10598
G1 X155.585 Y60.711 E.01314
G1 X155.585 Y64.091 E.10598
G1 X155.166 Y64.091 E.01314
G1 X155.166 Y60.711 E.10598
G1 X154.747 Y60.711 E.01314
G1 X154.747 Y64.091 E.10598
G1 X154.328 Y64.091 E.01314
G1 X154.328 Y60.711 E.10598
G1 X153.909 Y60.711 E.01314
G1 X153.909 Y64.091 E.10598
G1 X153.49 Y64.091 E.01314
G1 X153.49 Y60.711 E.10598
G1 X153.071 Y60.711 E.01314
G1 X153.071 Y64.091 E.10598
G1 X152.652 Y64.091 E.01314
G1 X152.652 Y60.711 E.10598
G1 X152.234 Y60.711 E.01314
G1 X152.234 Y64.091 E.10598
G1 X151.815 Y64.091 E.01314
G1 X151.815 Y60.711 E.10598
G1 X151.396 Y60.711 E.01314
G1 X151.396 Y64.091 E.10598
G1 X150.977 Y64.091 E.01314
G1 X150.977 Y60.711 E.10598
G1 X150.558 Y60.711 E.01314
G1 X150.558 Y64.091 E.10598
G1 X150.139 Y64.091 E.01314
G1 X150.139 Y60.711 E.10598
G1 X149.72 Y60.711 E.01314
G1 X149.72 Y64.091 E.10598
G1 X149.301 Y64.091 E.01314
G1 X149.301 Y60.711 E.10598
G1 X148.882 Y60.711 E.01314
G1 X148.882 Y64.091 E.10598
G1 X148.463 Y64.091 E.01314
G1 X148.463 Y60.711 E.10598
G1 X148.044 Y60.711 E.01314
G1 X148.044 Y64.091 E.10598
G1 X147.625 Y64.091 E.01314
G1 X147.625 Y60.711 E.10598
G1 X147.206 Y60.711 E.01314
G1 X147.206 Y64.091 E.10598
G1 X146.787 Y64.091 E.01314
G1 X146.787 Y60.711 E.10598
G1 X146.368 Y60.711 E.01314
G1 X146.368 Y64.091 E.10598
G1 X145.949 Y64.091 E.01314
G1 X145.949 Y60.541 E.1113
M204 S1000
;WIPE_START
G1 F8640
G1 X145.949 Y63.832 E-.76
;WIPE_END
G1 E-.04 F2100
G1 Z.6 F720
G1 X164.213 Y65.787 F10800
G1 Z.2 F720
G1 E.8 F2100
M204 S800
;TYPE:Perimeter
G1 F1200
G1 X164.213 Y144.213 E2.45899
G1 X85.787 Y144.213 E2.45899
G1 X85.787 Y65.787 E2.45899
G1 X164.153 Y65.787 E2.45711
M204 S1000
M73 Q1 S46
G1 X164.59 Y65.41 F10800
M204 S800
;TYPE:External perimeter
M73 Q2 S46
G1 F1200
M73 P2 R46
G1 X164.59 Y144.59 E2.48263
G1 X85.41 Y144.59 E2.48263
G1 X85.41 Y65.41 E2.48263
G1 X164.53 Y65.41 E2.48075
M204 S1000
G1 X164.486 Y65.796 F10800
;WIPE_START
G1 F8640
G1 X164.532 Y68.701 E-.76
;WIPE_END
G1 E-.04 F2100
G1 Z.6 F720
G1 X163.336 Y65.9 F10800
G1 Z.2 F720
G1 E.8 F2100
M204 S800
;TYPE:Solid infill
;WIDTH:0.420545
G1 F1200
G1 X163.93 Y66.494 E.02637
G1 X163.93 Y67.028 E.01677
G1 X162.972 Y66.07 E.04255
G1 X162.438 Y66.07 E.01677
G1 X163.93 Y67.562 E.06626
G1 X163.93 Y68.096 E.01677
G1 X161.904 Y66.07 E.08997
G1 X161.37 Y66.07 E.01677
G1 X163.93 Y68.63 E.11369
G1 X163.93 Y69.164 E.01677
G1 X160.836 Y66.07 E.1374
G1 X160.302 Y66.07 E.01677
G1 X163.93 Y69.698 E.16112
G1 X163.93 Y70.232 E.01677
G1 X159.768 Y66.07 E.18483
G1 X159.234 Y66.07 E.01677
G1 X163.93 Y70.766 E.20855
G1 X163.93 Y71.3 E.01677
G1 X158.7 Y66.07 E.23226
G1 X158.166 Y66.07 E.01677
G1 X163.93 Y71.834 E.25598
G1 X163.93 Y72.368 E.01677
G1 X157.632 Y66.07 E.27969
G1 X157.098 Y66.07 E.01677
G1 X163.93 Y72.902 E.30341
G1 X163.93 Y73.436 E.01677
G1 X156.564 Y66.07 E.32712
G1 X156.029 Y66.07 E.01677
G1 X163.93 Y73.971 E.35083
G1 X163.93 Y74.505 E.01677
G1 X155.495 Y66.07 E.37455
G1 X154.961 Y66.07 E.01677
G1 X163.93 Y75.039 E.39826
G1 X163.93 Y75.573 E.01677
G1 X154.427 Y66.07 E.42198
G1 X153.893 Y66.07 E.01677
G1 X163.93 Y76.107 E.44569
G1 X163.93 Y76.641 E.01677
G1 X153.359 Y66.07 E.46941
G1 X152.825 Y66.07 E.01677
G1 X163.93 Y77.175 E.49312
G1 X163.93 Y77.709 E.01677
G1 X152.291 Y66.07 E.51684
G1 X151.757 Y66.07 E.01677
G1 X163.93 Y78.243 E.54055
G1 X163.93 Y78.777 E.01677
G1 X151.223 Y66.07 E.56427
G1 X150.689 Y66.07 E.01677
G1 X163.93 Y79.311 E.58798
G1 X163.93 Y79.845 E.01677
M73 P3 R46
M73 Q3 S46
G1 X150.155 Y66.07 E.6117
G1 X149.621 Y66.07 E.01677
G1 X163.93 Y80.379 E.63541
G1 X163.93 Y80.913 E.01677
G1 X149.087 Y66.07 E.65912
G1 X148.553 Y66.07 E.01677
G1 X163.93 Y81.447 E.68284
G1 X163.93 Y81.981 E.01677
G1 X148.019 Y66.07 E.70655
G1 X147.485 Y66.07 E.01677
G1 X163.93 Y82.515 E.73027
G1 X163.93 Y83.049 E.01677
G1 X146.951 Y66.07 E.75398
G1 X146.417 Y66.07 E.01677
G1 X163.93 Y83.583 E.7777
G1 X163.93 Y84.117 E.01677
M73 P3 R45
G1 X145.883 Y66.07 E.80141
G1 X145.349 Y66.07 E.01677
G1 X163.93 Y84.651 E.82513
G1 X163.93 Y85.185 E.01677
G1 X144.815 Y66.07 E.84884
G1 X144.281 Y66.07 E.01677
G1 X163.93 Y85.719 E.87256
G1 X163.93 Y86.254 E.01677
G1 X143.747 Y66.07 E.89627
G1 X143.212 Y66.07 E.01677
G1 X163.93 Y86.788 E.91998
G1 X163.93 Y87.322 E.01677
G1 X142.678 Y66.07 E.9437
G1 X142.144 Y66.07 E.01677
G1 X163.93 Y87.856 E.96741
G1 X163.93 Y88.39 E.01677
G1 X141.61 Y66.07 E.99113
G1 X141.076 Y66.07 E.01677
G1 X163.93 Y88.924 E1.01484
G1 X163.93 Y89.458 E.01677
M73 Q3 S45
G1 X140.542 Y66.07 E1.03856
G1 X140.008 Y66.07 E.01677
G1 X163.93 Y89.992 E1.06227
G1 X163.93 Y90.526 E.01677
G1 X139.474 Y66.07 E1.08599
G1 X138.94 Y66.07 E.01677
M73 P4 R45
M73 Q4 S45
G1 X163.93 Y91.06 E1.1097
G1 X163.93 Y91.594 E.01677
G1 X138.406 Y66.07 E1.13342
G1 X137.872 Y66.07 E.01677
G1 X163.93 Y92.128 E1.15713
G1 X163.93 Y92.662 E.01677
G1 X137.338 Y66.07 E1.18085
G1 X136.804 Y66.07 E.01677
G1 X163.93 Y93.196 E1.20456
G1 X163.93 Y93.73 E.01677
G1 X136.27 Y66.07 E1.22827
G1 X135.736 Y66.07 E.01677
G1 X163.93 Y94.264 E1.25199
G1 X163.93 Y94.798 E.01677
G1 X135.202 Y66.07 E1.2757
G1 X134.668 Y66.07 E.01677
G1 X163.93 Y95.332 E1.29942
G1 X163.93 Y95.866 E.01677
G1 X134.134 Y66.07 E1.32313
G1 X133.6 Y66.07 E.01677
G1 X163.93 Y96.4 E1.34685
G1 X163.93 Y96.934 E.01677
G1 X133.066 Y66.07 E1.37056
G1 X132.532 Y66.07 E.01677
G1 X163.93 Y97.468 E1.39428
G1 X163.93 Y98.002 E.01677
G1 X131.998 Y66.07 E1.41799
G1 X131.464 Y66.07 E.01677
M73 P5 R45
M73 Q5 S45
G1 X163.93 Y98.536 E1.44171
G1 X163.93 Y99.071 E.01677
G1 X130.929 Y66.07 E1.46542
G1 X130.395 Y66.07 E.01677
G1 X163.93 Y99.605 E1.48913
G1 X163.93 Y100.139 E.01677
G1 X129.861 Y66.07 E1.51285
G1 X129.327 Y66.07 E.01677
G1 X163.93 Y100.673 E1.53656
G1 X163.93 Y101.207 E.01677
M73 P5 R44
G1 X128.793 Y66.07 E1.56028
G1 X128.259 Y66.07 E.01677
G1 X163.93 Y101.741 E1.58399
G1 X163.93 Y102.275 E.01677
G1 X127.725 Y66.07 E1.60771
G1 X127.191 Y66.07 E.01677
G1 X163.93 Y102.809 E1.63142
G1 X163.93 Y103.343 E.01677
G1 X126.657 Y66.07 E1.65514
G1 X126.123 Y66.07 E.01677
M73 Q5 S44
G1 X163.93 Y103.877 E1.67885
G1 X163.93 Y104.411 E.01677
M73 P6 R44
M73 Q6 S44
G1 X125.589 Y66.07 E1.70257
G1 X125.055 Y66.07 E.01677
G1 X163.93 Y104.945 E1.72628
G1 X163.93 Y105.479 E.01677
G1 X124.521 Y66.07 E1.75
G1 X123.987 Y66.07 E.01677
G1 X163.93 Y106.013 E1.77371
G1 X163.93 Y106.547 E.01677
G1 X123.453 Y66.07 E1.79742
G1 X122.919 Y66.07 E.01677
G1 X163.93 Y107.081 E1.82114
G1 X163.93 Y107.615 E.01677
G1 X122.385 Y66.07 E1.84485
G1 X121.851 Y66.07 E.01677
G1 X163.93 Y108.149 E1.86857
G1 X163.93 Y108.683 E.01677
G1 X121.317 Y66.07 E1.89228
G1 X120.783 Y66.07 E.01677
G1 X163.93 Y109.217 E1.916
G1 X163.93 Y109.751 E.01677
M73 P7 R44
M73 Q7 S44
G1 X120.249 Y66.07 E1.93971
G1 X119.715 Y66.07 E.01677
G1 X163.93 Y110.285 E1.96343
G1 X163.93 Y110.819 E.01677
G1 X119.181 Y66.07 E1.98714
G1 X118.647 Y66.07 E.01677
G1 X163.93 Y111.353 E2.01086
G1 X163.93 Y111.888 E.01677
G1 X118.112 Y66.07 E2.03457
G1 X117.578 Y66.07 E.01677
M73 P7 R43
G1 X163.93 Y112.422 E2.05828
G1 X163.93 Y112.956 E.01677
G1 X117.044 Y66.07 E2.082
G1 X116.51 Y66.07 E.01677
G1 X163.93 Y113.49 E2.10571
G1 X163.93 Y114.024 E.01677
G1 X115.976 Y66.07 E2.12943
G1 X115.442 Y66.07 E.01677
M73 P8 R43
M73 Q8 S43
G1 X163.93 Y114.558 E2.15314
G1 X163.93 Y115.092 E.01677
G1 X114.908 Y66.07 E2.17686
G1 X114.374 Y66.07 E.01677
G1 X163.93 Y115.626 E2.20057
G1 X163.93 Y116.16 E.01677
G1 X113.84 Y66.07 E2.22429
G1 X113.306 Y66.07 E.01677
G1 X163.93 Y116.694 E2.248
G1 X163.93 Y117.228 E.01677
G1 X112.772 Y66.07 E2.27172
G1 X112.238 Y66.07 E.01677
G1 X163.93 Y117.762 E2.29543
G1 X163.93 Y118.296 E.01677
G1 X111.704 Y66.07 E2.31915
G1 X111.17 Y66.07 E.01677
M73 P9 R43
M73 Q9 S43
G1 X163.93 Y118.83 E2.34286
G1 X163.93 Y119.364 E.01677
G1 X110.636 Y66.07 E2.36657
G1 X110.102 Y66.07 E.01677
G1 X163.93 Y119.898 E2.39029
G1 X163.93 Y120.432 E.01677
G1 X109.568 Y66.07 E2.414
G1 X109.034 Y66.07 E.01677
M73 P9 R42
G1 X163.93 Y120.966 E2.43772
G1 X163.93 Y121.5 E.01677
G1 X108.5 Y66.07 E2.46143
G1 X107.966 Y66.07 E.01677
G1 X163.93 Y122.034 E2.48515
G1 X163.93 Y122.568 E.01677
M73 P10 R42
M73 Q10 S43
G1 X107.432 Y66.07 E2.50886
G1 X106.898 Y66.07 E.01677
M73 Q10 S42
G1 X163.93 Y123.102 E2.53258
G1 X163.93 Y123.636 E.01677
G1 X106.364 Y66.07 E2.55629
G1 X105.829 Y66.07 E.01677
G1 X163.93 Y124.171 E2.58001
G1 X163.93 Y124.705 E.01677
G1 X105.295 Y66.07 E2.60372
G1 X104.761 Y66.07 E.01677
G1 X163.93 Y125.239 E2.62743
G1 X163.93 Y125.773 E.01677
G1 X104.227 Y66.07 E2.65115
G1 X103.693 Y66.07 E.01677
M73 P11 R42
M73 Q11 S42
G1 X163.93 Y126.307 E2.67486
G1 X163.93 Y126.841 E.01677
G1 X103.159 Y66.07 E2.69858
G1 X102.625 Y66.07 E.01677
G1 X163.93 Y127.375 E2.72229
G1 X163.93 Y127.909 E.01677
G1 X102.091 Y66.07 E2.74601
G1 X101.557 Y66.07 E.01677
G1 X163.93 Y128.443 E2.76972
G1 X163.93 Y128.977 E.01677
M73 P11 R41
G1 X101.023 Y66.07 E2.79344
G1 X100.489 Y66.07 E.01677
G1 X163.93 Y129.511 E2.81715
G1 X163.93 Y130.045 E.01677
M73 P12 R41
M73 Q12 S42
G1 X99.955 Y66.07 E2.84087
G1 X99.421 Y66.07 E.01677
M73 Q12 S41
G1 X163.93 Y130.579 E2.86458
G1 X163.93 Y131.113 E.01677
G1 X98.887 Y66.07 E2.8883
G1 X98.353 Y66.07 E.01677
G1 X163.93 Y131.647 E2.91201
G1 X163.93 Y132.181 E.01677
G1 X97.819 Y66.07 E2.93572
G1 X97.285 Y66.07 E.01677
G1 X163.93 Y132.715 E2.95944
G1 X163.93 Y133.249 E.01677
M73 P13 R41
M73 Q13 S41
G1 X96.751 Y66.07 E2.98315
G1 X96.217 Y66.07 E.01677
G1 X163.93 Y133.783 E3.00687
G1 X163.93 Y134.317 E.01677
G1 X95.683 Y66.07 E3.03058
G1 X95.149 Y66.07 E.01677
G1 X163.93 Y134.851 E3.0543
G1 X163.93 Y135.385 E.01677
G1 X94.615 Y66.07 E3.07801
G1 X94.081 Y66.07 E.01677
M73 P13 R40
G1 X163.93 Y135.919 E3.10173
G1 X163.93 Y136.453 E.01677
M73 P14 R40
M73 Q14 S41
G1 X93.547 Y66.07 E3.12544
G1 X93.012 Y66.07 E.01677
G1 X163.93 Y136.988 E3.14916
G1 X163.93 Y137.522 E.01677
M73 Q14 S40
G1 X92.478 Y66.07 E3.17287
G1 X91.944 Y66.07 E.01677
G1 X163.93 Y138.056 E3.19658
G1 X163.93 Y138.59 E.01677
G1 X91.41 Y66.07 E3.2203
G1 X90.876 Y66.07 E.01677
M73 P15 R40
G1 X163.93 Y139.124 E3.24401
G1 X163.93 Y139.658 E.01677
M73 Q15 S40
G1 X90.342 Y66.07 E3.26773
G1 X89.808 Y66.07 E.01677
G1 X163.93 Y140.192 E3.29144
G1 X163.93 Y140.726 E.01677
G1 X89.274 Y66.07 E3.31516
G1 X88.74 Y66.07 E.01677
G1 X163.93 Y141.26 E3.33887
G1 X163.93 Y141.794 E.01677
M73 P15 R39
G1 X88.206 Y66.07 E3.36259
G1 X87.672 Y66.07 E.01677
M73 P16 R39
M73 Q16 S40
G1 X163.93 Y142.328 E3.3863
G1 X163.93 Y142.862 E.01677
G1 X87.138 Y66.07 E3.41002
G1 X86.604 Y66.07 E.01677
M73 Q16 S39
G1 X163.93 Y143.396 E3.43373
G1 X163.93 Y143.93 E.01677
G1 X86.07 Y66.07 E3.45745
G1 X86.07 Y66.604 E.01677
G1 X163.396 Y143.93 E3.43373
G1 X162.862 Y143.93 E.01677
M73 P17 R39
M73 Q17 S39
G1 X86.07 Y67.138 E3.41002
G1 X86.07 Y67.672 E.01677
G1 X162.328 Y143.93 E3.38631
G1 X161.794 Y143.93 E.01677
G1 X86.07 Y68.206 E3.36259
G1 X86.07 Y68.74 E.01677
G1 X161.26 Y143.93 E3.33888
G1 X160.726 Y143.93 E.01677
G1 X86.07 Y69.274 E3.31516
G1 X86.07 Y69.808 E.01677
M73 P18 R38
G1 X160.192 Y143.93 E3.29145
G1 X159.658 Y143.93 E.01677
M73 Q18 S39
G1 X86.07 Y70.342 E3.26773
G1 X86.07 Y70.876 E.01677
G1 X159.124 Y143.93 E3.24402
G1 X158.59 Y143.93 E.01677
M73 Q18 S38
G1 X86.07 Y71.41 E3.2203
G1 X86.07 Y71.944 E.01677
G1 X158.056 Y143.93 E3.19659
