; generated by PrusaSlicer 2.4.1+x64 on 2022-03-21 at 21:22:22 UTC

; 

; external perimeters extrusion width = 0.60mm
; perimeters extrusion width = 0.50mm
; infill extrusion width = 0.50mm
; solid infill extrusion width = 0.50mm
; top infill extrusion width = 0.45mm
; support material extrusion width = 0.38mm
; first layer extrusion width = 0.42mm

M73 P0 R107
M73 Q0 S107
M201 X1000 Y1000 Z200 E5000 ; sets maximum accelerations, mm/sec^2
M203 X200 Y200 Z12 E120 ; sets maximum feedrates, mm / sec
M204 P1250 R1250 T1250 ; sets acceleration (P, T) and retract acceleration (R), mm/sec^2
M205 X8.00 Y8.00 Z0.40 E4.50 ; sets the jerk limits, mm/sec
M205 S0 T0 ; sets the minimum extruding and travel feed rate, mm/sec
M107
;TYPE:Custom
M862.3 P "MK3S" ; printer model check
M862.1 P0.4 ; nozzle diameter check
M115 U3.10.1 ; tell printer latest fw version
G90 ; use absolute coordinates
M83 ; extruder relative mode
M104 S215 ; set extruder temp
M140 S60 ; set bed temp
M190 S60 ; wait for bed temp
M109 S215 ; wait for extruder temp
G28 W ; home all without mesh bed level
G80 ; mesh bed leveling
G1 Z0.2 F720
G1 Y-3 F1000 ; go outside print area
G92 E0
G1 X60 E9 F1000 ; intro line
G1 X100 E12.5 F1000 ; intro line
G92 E0
M221 S95

; Don't change E values below. Excessive value can damage the printer.

M907 E538 ; set extruder motor current
G21 ; set units to millimeters
G90 ; use absolute coordinates
M83 ; use relative distances for extrusion
M900 K0.05 ; Filament gcode LA 1.5
M900 K30 ; Filament gcode LA 1.0
M107
;LAYER_CHANGE
;Z:0.2
;HEIGHT:0.2
;BEFORE_LAYER_CHANGE
G92 E0.0
;0.2


G1 E-.8 F2100
G1 Z.4 F720
;AFTER_LAYER_CHANGE
;0.2
G1 X36.537 Y62.827 F10800
G1 Z.2 F720
G1 E.8 F2100
M204 S800
;TYPE:Skirt/Brim
;WIDTH:0.42
G1 F1200
G1 X46.99 Y58.198 E.35843
G1 X47.952 Y57.994 E.03085
G1 X102.576 Y57.996 E1.71268
G1 X212.6 Y62.625 E3.45278
G1 X213.889 Y63.071 E.04278
G1 X214.721 Y64.153 E.04278
G1 X214.877 Y65 E.02701
G1 X214.877 Y145 E2.50834
G1 X214.485 Y146.307 E.04278
G1 X213.44 Y147.183 E.04278
G1 X212.5 Y147.377 E.03008
G1 X37.5 Y147.377 E5.487
G1 X36.193 Y146.985 E.04278
M73 P0 R106
G1 X35.317 Y145.94 E.04278
G1 X35.123 Y145 E.03008
G1 X35.123 Y65 E2.50834
G1 X35.515 Y63.693 E.04278
G1 X36.492 Y62.865 E.04015
M204 S1000
; printing object cable-case.stl id:0 copy 0
;WIPE_START
G1 F8640
G1 X39.499 Y61.528 E-.76
;WIPE_END
G1 E-.04 F2100
G1 Z.6 F720
G1 X60.795 Y64.43 F10800
G1 Z.2 F720
G1 E.8 F2100
M204 S800
;TYPE:Support material
G1 F1200
G1 X47.952 Y64.43 E.40266
G1 X47.952 Y60.371 E.12726
G1 X60.795 Y60.371 E.40266
G1 X60.795 Y64.373 E.12549
M204 S1000
G1 X60.059 Y64.26 F10800
M204 S800
G1 F1200
G1 X60.059 Y60.711 E.1113
G1 X59.64 Y60.711 E.01314
G1 X59.64 Y64.091 E.10598
G1 X59.221 Y64.091 E.01314
G1 X59.221 Y60.711 E.10598
G1 X58.802 Y60.711 E.01314
G1 X58.802 Y64.091 E.10598
G1 X58.383 Y64.091 E.01314
G1 X58.383 Y60.711 E.10598
G1 X57.964 Y60.711 E.01314
G1 X57.964 Y64.091 E.10598
G1 X57.545 Y64.091 E.01314
G1 X57.545 Y60.711 E.10598
G1 X57.126 Y60.711 E.01314
G1 X57.126 Y64.091 E.10598
G1 X56.707 Y64.091 E.01314
G1 X56.707 Y60.711 E.10598
G1 X56.288 Y60.711 E.01314
G1 X56.288 Y64.091 E.10598
G1 X55.869 Y64.091 E.01314
G1 X55.869 Y60.711 E.10598
G1 X55.45 Y60.711 E.01314
G1 X55.45 Y64.091 E.10598
G1 X55.031 Y64.091 E.01314
G1 X55.031 Y60.711 E.10598
G1 X54.612 Y60.711 E.01314
G1 X54.612 Y64.091 E.10598
G1 X54.193 Y64.091 E.01314
G1 X54.193 Y60.711 E.10598
G1 X53.774 Y60.711 E.01314
G1 X53.774 Y64.091 E.10598
G1 X53.355 Y64.091 E.01314
G1 X53.355 Y60.711 E.10598
G1 X52.936 Y60.711 E.01314
G1 X52.936 Y64.091 E.10598
G1 X52.517 Y64.091 E.01314
G1 X52.517 Y60.711 E.10598
G1 X52.098 Y60.711 E.01314
G1 X52.098 Y64.091 E.10598
G1 X51.679 Y64.091 E.01314
G1 X51.679 Y60.711 E.10598
G1 X51.26 Y60.711 E.01314
G1 X51.26 Y64.091 E.10598
G1 X50.841 Y64.091 E.01314
G1 X50.841 Y60.711 E.10598
G1 X50.422 Y60.711 E.01314
G1 X50.422 Y64.091 E.10598
G1 X50.003 Y64.091 E.01314
G1 X50.003 Y60.711 E.10598
G1 X49.584 Y60.711 E.01314
G1 X49.584 Y64.091 E.10598
G1 X49.165 Y64.091 E.01314
G1 X49.165 Y60.711 E.10598
G1 X48.746 Y60.711 E.01314
G1 X48.746 Y64.091 E.10598
G1 X48.327 Y64.091 E.01314
G1 X48.327 Y60.541 E.1113
M204 S1000
;WIPE_START
G1 F8640
G1 X48.327 Y63.832 E-.76
;WIPE_END
G1 E-.04 F2100
G1 Z.6 F720
G1 X102.476 Y64.43 F10800
G1 Z.2 F720
G1 E.8 F2100
M204 S800
G1 F1200
G1 X87.318 Y64.43 E.47527
G1 X87.318 Y60.371 E.12726
G1 X102.476 Y60.371 E.47527
G1 X102.476 Y64.373 E.12549
M204 S1000
G1 X101.956 Y64.26 F10800
M204 S800
M73 Q0 S106
G1 F1200
G1 X101.956 Y60.711 E.1113
G1 X101.537 Y60.711 E.01314
G1 X101.537 Y64.091 E.10598
G1 X101.118 Y64.091 E.01314
G1 X101.118 Y60.711 E.10598
G1 X100.699 Y60.711 E.01314
G1 X100.699 Y64.091 E.10598
G1 X100.28 Y64.091 E.01314
G1 X100.28 Y60.711 E.10598
G1 X99.861 Y60.711 E.01314
G1 X99.861 Y64.091 E.10598
G1 X99.442 Y64.091 E.01314
G1 X99.442 Y60.711 E.10598
G1 X99.023 Y60.711 E.01314
G1 X99.023 Y64.091 E.10598
G1 X98.604 Y64.091 E.01314
G1 X98.604 Y60.711 E.10598
G1 X98.185 Y60.711 E.01314
G1 X98.185 Y64.091 E.10598
G1 X97.766 Y64.091 E.01314
G1 X97.766 Y60.711 E.10598
G1 X97.348 Y60.711 E.01314
G1 X97.348 Y64.091 E.10598
G1 X96.929 Y64.091 E.01314
G1 X96.929 Y60.711 E.10598
G1 X96.51 Y60.711 E.01314
G1 X96.51 Y64.091 E.10598
G1 X96.091 Y64.091 E.01314
G1 X96.091 Y60.711 E.10598
G1 X95.672 Y60.711 E.01314
G1 X95.672 Y64.091 E.10598
G1 X95.253 Y64.091 E.01314
G1 X95.253 Y60.711 E.10598
G1 X94.834 Y60.711 E.01314
G1 X94.834 Y64.091 E.10598
G1 X94.415 Y64.091 E.01314
G1 X94.415 Y60.711 E.10598
G1 X93.996 Y60.711 E.01314
G1 X93.996 Y64.091 E.10598
G1 X93.577 Y64.091 E.01314
G1 X93.577 Y60.711 E.10598
G1 X93.158 Y60.711 E.01314
G1 X93.158 Y64.091 E.10598
G1 X92.739 Y64.091 E.01314
G1 X92.739 Y60.711 E.10598
G1 X92.32 Y60.711 E.01314
G1 X92.32 Y64.091 E.10598
G1 X91.901 Y64.091 E.01314
G1 X91.901 Y60.711 E.10598
G1 X91.482 Y60.711 E.01314
G1 X91.482 Y64.091 E.10598
G1 X91.063 Y64.091 E.01314
G1 X91.063 Y60.711 E.10598
G1 X90.644 Y60.711 E.01314
G1 X90.644 Y64.091 E.10598
G1 X90.225 Y64.091 E.01314
G1 X90.225 Y60.711 E.10598
G1 X89.806 Y60.711 E.01314
G1 X89.806 Y64.091 E.10598
G1 X89.387 Y64.091 E.01314
G1 X89.387 Y60.711 E.10598
G1 X88.968 Y60.711 E.01314
G1 X88.968 Y64.091 E.10598
G1 X88.549 Y64.091 E.01314
G1 X88.549 Y60.711 E.10598
G1 X88.13 Y60.711 E.01314
G1 X88.13 Y64.091 E.10598
G1 X87.711 Y64.091 E.01314
G1 X87.711 Y60.541 E.1113
M204 S1000
;WIPE_START
G1 F8640
G1 X87.711 Y63.832 E-.76
;WIPE_END
G1 E-.04 F2100
G1 Z.6 F720
G1 X116.713 Y65.787 F10800
G1 Z.2 F720
G1 E.8 F2100
M204 S800
;TYPE:Perimeter
G1 F1200
G1 X116.713 Y144.213 E2.45899
G1 X38.287 Y144.213 E2.45899
G1 X38.287 Y65.787 E2.45899
G1 X116.653 Y65.787 E2.45711
M204 S1000
G1 X117.09 Y65.41 F10800
M204 S800
;TYPE:External perimeter
M73 P1 R106
M73 Q1 S106
G1 F1200
G1 X117.09 Y144.59 E2.48263
G1 X37.91 Y144.59 E2.48263
G1 X37.91 Y65.41 E2.48263
G1 X117.03 Y65.41 E2.48075
M204 S1000
G1 X116.986 Y65.796 F10800
;WIPE_START
M73 P1 R105
G1 F8640
G1 X117.032 Y68.701 E-.76
;WIPE_END
G1 E-.04 F2100
G1 Z.6 F720
G1 X115.836 Y65.9 F10800
G1 Z.2 F720
G1 E.8 F2100
M204 S800
;TYPE:Solid infill
;WIDTH:0.420545
G1 F1200
G1 X116.43 Y66.494 E.02637
G1 X116.43 Y67.028 E.01677
G1 X115.472 Y66.07 E.04255
G1 X114.938 Y66.07 E.01677
G1 X116.43 Y67.562 E.06626
G1 X116.43 Y68.096 E.01677
G1 X114.404 Y66.07 E.08997
G1 X113.87 Y66.07 E.01677
G1 X116.43 Y68.63 E.11369
G1 X116.43 Y69.164 E.01677
G1 X113.336 Y66.07 E.1374
G1 X112.802 Y66.07 E.01677
G1 X116.43 Y69.698 E.16112
G1 X116.43 Y70.232 E.01677
G1 X112.268 Y66.07 E.18483
G1 X111.734 Y66.07 E.01677
G1 X116.43 Y70.766 E.20855
G1 X116.43 Y71.3 E.01677
G1 X111.2 Y66.07 E.23226
G1 X110.666 Y66.07 E.01677
G1 X116.43 Y71.834 E.25598
G1 X116.43 Y72.368 E.01677
G1 X110.132 Y66.07 E.27969
G1 X109.598 Y66.07 E.01677
G1 X116.43 Y72.902 E.30341
G1 X116.43 Y73.436 E.01677
G1 X109.064 Y66.07 E.32712
G1 X108.529 Y66.07 E.01677
G1 X116.43 Y73.971 E.35083
G1 X116.43 Y74.505 E.01677
G1 X107.995 Y66.07 E.37455
G1 X107.461 Y66.07 E.01677
G1 X116.43 Y75.039 E.39826
G1 X116.43 Y75.573 E.01677
G1 X106.927 Y66.07 E.42198
G1 X106.393 Y66.07 E.01677
G1 X116.43 Y76.107 E.44569
G1 X116.43 Y76.641 E.01677
G1 X105.859 Y66.07 E.46941
G1 X105.325 Y66.07 E.01677
G1 X116.43 Y77.175 E.49312
G1 X116.43 Y77.709 E.01677
G1 X104.791 Y66.07 E.51684
G1 X104.257 Y66.07 E.01677
G1 X116.43 Y78.243 E.54055
G1 X116.43 Y78.777 E.01677
G1 X103.723 Y66.07 E.56427
G1 X103.189 Y66.07 E.01677
G1 X116.43 Y79.311 E.58798
G1 X116.43 Y79.845 E.01677
G1 X102.655 Y66.07 E.6117
G1 X102.121 Y66.07 E.01677
G1 X116.43 Y80.379 E.63541
G1 X116.43 Y80.913 E.01677
G1 X101.587 Y66.07 E.65912
G1 X101.053 Y66.07 E.01677
G1 X116.43 Y81.447 E.68284
G1 X116.43 Y81.981 E.01677
G1 X100.519 Y66.07 E.70655
G1 X99.985 Y66.07 E.01677
G1 X116.43 Y82.515 E.73027
G1 X116.43 Y83.049 E.01677
G1 X99.451 Y66.07 E.75398
G1 X98.917 Y66.07 E.01677
M73 Q1 S105
G1 X116.43 Y83.583 E.7777
G1 X116.43 Y84.117 E.01677
G1 X98.383 Y66.07 E.80141
G1 X97.849 Y66.07 E.01677
G1 X116.43 Y84.651 E.82513
G1 X116.43 Y85.185 E.01677
G1 X97.315 Y66.07 E.84884
G1 X96.781 Y66.07 E.01677
G1 X116.43 Y85.719 E.87256
G1 X116.43 Y86.253 E.01677
G1 X96.247 Y66.07 E.89627
G1 X95.712 Y66.07 E.01677
G1 X116.43 Y86.788 E.91998
G1 X116.43 Y87.322 E.01677
G1 X95.178 Y66.07 E.9437
G1 X94.644 Y66.07 E.01677
G1 X116.43 Y87.856 E.96741
G1 X116.43 Y88.39 E.01677
G1 X94.11 Y66.07 E.99113
G1 X93.576 Y66.07 E.01677
G1 X116.43 Y88.924 E1.01484
G1 X116.43 Y89.458 E.01677
G1 X93.042 Y66.07 E1.03856
G1 X92.508 Y66.07 E.01677
G1 X116.43 Y89.992 E1.06227
G1 X116.43 Y90.526 E.01677
G1 X91.974 Y66.07 E1.08599
G1 X91.44 Y66.07 E.01677
G1 X116.43 Y91.06 E1.1097
G1 X116.43 Y91.594 E.01677
G1 X90.906 Y66.07 E1.13342
G1 X90.372 Y66.07 E.01677
M73 P2 R105
M73 Q2 S105
G1 X116.43 Y92.128 E1.15713
G1 X116.43 Y92.662 E.01677
G1 X89.838 Y66.07 E1.18085
G1 X89.304 Y66.07 E.01677
G1 X116.43 Y93.196 E1.20456
G1 X116.43 Y93.73 E.01677
G1 X88.77 Y66.07 E1.22827
G1 X88.236 Y66.07 E.01677
G1 X116.43 Y94.264 E1.25199
G1 X116.43 Y94.798 E.01677
G1 X87.702 Y66.07 E1.2757
G1 X87.168 Y66.07 E.01677
M73 P2 R104
G1 X116.43 Y95.332 E1.29942
G1 X116.43 Y95.866 E.01677
G1 X86.634 Y66.07 E1.32313
G1 X86.1 Y66.07 E.01677
G1 X116.43 Y96.4 E1.34685
G1 X116.43 Y96.934 E.01677
G1 X85.566 Y66.07 E1.37056
G1 X85.032 Y66.07 E.01677
G1 X116.43 Y97.468 E1.39428
G1 X116.43 Y98.002 E.01677
G1 X84.498 Y66.07 E1.41799
G1 X83.964 Y66.07 E.01677
G1 X116.43 Y98.536 E1.44171
G1 X116.43 Y99.071 E.01677
G1 X83.429 Y66.07 E1.46542
G1 X82.895 Y66.07 E.01677
G1 X116.43 Y99.605 E1.48913
G1 X116.43 Y100.139 E.01677
G1 X82.361 Y66.07 E1.51285
G1 X81.827 Y66.07 E.01677
M73 Q2 S104
G1 X116.43 Y100.673 E1.53656
G1 X116.43 Y101.207 E.01677
G1 X81.293 Y66.07 E1.56028
G1 X80.759 Y66.07 E.01677
G1 X116.43 Y101.741 E1.58399
G1 X116.43 Y102.275 E.01677
G1 X80.225 Y66.07 E1.60771
G1 X79.691 Y66.07 E.01677
G1 X116.43 Y102.809 E1.63142
G1 X116.43 Y103.343 E.01677
G1 X79.157 Y66.07 E1.65514
G1 X78.623 Y66.07 E.01677
G1 X116.43 Y103.877 E1.67885
G1 X116.43 Y104.411 E.01677
G1 X78.089 Y66.07 E1.70257
G1 X77.555 Y66.07 E.01677
G1 X116.43 Y104.945 E1.72628
G1 X116.43 Y105.479 E.01677
G1 X77.021 Y66.07 E1.75
G1 X76.487 Y66.07 E.01677
G1 X116.43 Y106.013 E1.77371
G1 X116.43 Y106.547 E.01677
M73 P3 R104
M73 Q3 S104
G1 X75.953 Y66.07 E1.79742
G1 X75.419 Y66.07 E.01677
G1 X116.43 Y107.081 E1.82114
G1 X116.43 Y107.615 E.01677
G1 X74.885 Y66.07 E1.84485
G1 X74.351 Y66.07 E.01677
M73 P3 R103
G1 X116.43 Y108.149 E1.86857
G1 X116.43 Y108.683 E.01677
G1 X73.817 Y66.07 E1.89228
G1 X73.283 Y66.07 E.01677
G1 X116.43 Y109.217 E1.916
G1 X116.43 Y109.751 E.01677
G1 X72.749 Y66.07 E1.93971
G1 X72.215 Y66.07 E.01677
G1 X116.43 Y110.285 E1.96343
G1 X116.43 Y110.819 E.01677
G1 X71.681 Y66.07 E1.98714
G1 X71.147 Y66.07 E.01677
G1 X116.43 Y111.353 E2.01086
G1 X116.43 Y111.888 E.01677
M73 Q3 S103
G1 X70.612 Y66.07 E2.03457
G1 X70.078 Y66.07 E.01677
G1 X116.43 Y112.422 E2.05828
G1 X116.43 Y112.956 E.01677
G1 X69.544 Y66.07 E2.082
G1 X69.01 Y66.07 E.01677
G1 X116.43 Y113.49 E2.10571
G1 X116.43 Y114.024 E.01677
G1 X68.476 Y66.07 E2.12943
G1 X67.942 Y66.07 E.01677
G1 X116.43 Y114.558 E2.15314
G1 X116.43 Y115.092 E.01677
G1 X67.408 Y66.07 E2.17686
G1 X66.874 Y66.07 E.01677
G1 X116.43 Y115.626 E2.20057
G1 X116.43 Y116.16 E.01677
G1 X66.34 Y66.07 E2.22429
G1 X65.806 Y66.07 E.01677
G1 X116.43 Y116.694 E2.248
G1 X116.43 Y117.228 E.01677
M73 P4 R103
M73 Q4 S103
G1 X65.272 Y66.07 E2.27172
G1 X64.738 Y66.07 E.01677
M73 P4 R102
G1 X116.43 Y117.762 E2.29543
G1 X116.43 Y118.296 E.01677
G1 X64.204 Y66.07 E2.31915
G1 X63.67 Y66.07 E.01677
G1 X116.43 Y118.83 E2.34286
G1 X116.43 Y119.364 E.01677
G1 X63.136 Y66.07 E2.36657
G1 X62.602 Y66.07 E.01677
G1 X116.43 Y119.898 E2.39029
G1 X116.43 Y120.432 E.01677
G1 X62.068 Y66.07 E2.414
G1 X61.534 Y66.07 E.01677
M73 Q4 S102
G1 X116.43 Y120.966 E2.43772
G1 X116.43 Y121.5 E.01677
G1 X61 Y66.07 E2.46143
G1 X60.466 Y66.07 E.01677
G1 X116.43 Y122.034 E2.48515
G1 X116.43 Y122.568 E.01677
G1 X59.932 Y66.07 E2.50886
G1 X59.398 Y66.07 E.01677
G1 X116.43 Y123.102 E2.53258
G1 X116.43 Y123.636 E.01677
G1 X58.864 Y66.07 E2.55629
G1 X58.329 Y66.07 E.01677
G1 X116.43 Y124.171 E2.58001
G1 X116.43 Y124.705 E.01677
G1 X57.795 Y66.07 E2.60372
G1 X57.261 Y66.07 E.01677
G1 X116.43 Y125.239 E2.62743
G1 X116.43 Y125.773 E.01677
M73 P5 R101
G1 X56.727 Y66.07 E2.65115
G1 X56.193 Y66.07 E.01677
M73 Q5 S102
G1 X116.43 Y126.307 E2.67486
G1 X116.43 Y126.841 E.01677
G1 X55.659 Y66.07 E2.69858
G1 X55.125 Y66.07 E.01677
G1 X116.43 Y127.375 E2.72229
G1 X116.43 Y127.909 E.01677
G1 X54.591 Y66.07 E2.74601
G1 X54.057 Y66.07 E.01677
M73 Q5 S101
G1 X116.43 Y128.443 E2.76972
G1 X116.43 Y128.977 E.01677
G1 X53.523 Y66.07 E2.79344
G1 X52.989 Y66.07 E.01677
G1 X116.43 Y129.511 E2.81715
G1 X116.43 Y130.045 E.01677
G1 X52.455 Y66.07 E2.84087
G1 X51.921 Y66.07 E.01677
G1 X116.43 Y130.579 E2.86458
G1 X116.43 Y131.113 E.01677
G1 X51.387 Y66.07 E2.8883
G1 X50.853 Y66.07 E.01677
G1 X116.43 Y131.647 E2.91201
G1 X116.43 Y132.181 E.01677
G1 X50.319 Y66.07 E2.93572
G1 X49.785 Y66.07 E.01677
G1 X116.43 Y132.715 E2.95944
G1 X116.43 Y133.249 E.01677
M73 P5 R100
G1 X49.251 Y66.07 E2.98315
G1 X48.717 Y66.07 E.01677
M73 P6 R100
M73 Q6 S101
G1 X116.43 Y133.783 E3.00687
G1 X116.43 Y134.317 E.01677
G1 X48.183 Y66.07 E3.03058
G1 X47.649 Y66.07 E.01677
G1 X116.43 Y134.851 E3.0543
G1 X116.43 Y135.385 E.01677
M73 Q6 S100
G1 X47.115 Y66.07 E3.07801
G1 X46.581 Y66.07 E.01677
G1 X116.43 Y135.919 E3.10173
G1 X116.43 Y136.453 E.01677
G1 X46.047 Y66.07 E3.12544
G1 X45.512 Y66.07 E.01677
G1 X116.43 Y136.988 E3.14916
G1 X116.43 Y137.522 E.01677
G1 X44.978 Y66.07 E3.17287
G1 X44.444 Y66.07 E.01677
G1 X116.43 Y138.056 E3.19658
G1 X116.43 Y138.59 E.01677
G1 X43.91 Y66.07 E3.2203
G1 X43.376 Y66.07 E.01677
G1 X116.43 Y139.124 E3.24401
G1 X116.43 Y139.658 E.01677
M73 P6 R99
G1 X42.842 Y66.07 E3.26773
G1 X42.308 Y66.07 E.01677
M73 P7 R99
G1 X116.43 Y140.192 E3.29144
G1 X116.43 Y140.726 E.01677
M73 Q7 S100
G1 X41.774 Y66.07 E3.31516
G1 X41.24 Y66.07 E.01677
G1 X116.43 Y141.26 E3.33887
G1 X116.43 Y141.794 E.01677
M73 Q7 S99
G1 X40.706 Y66.07 E3.36259
G1 X40.172 Y66.07 E.01677
G1 X116.43 Y142.328 E3.3863
G1 X116.43 Y142.862 E.01677
G1 X39.638 Y66.07 E3.41002
G1 X39.104 Y66.07 E.01677
G1 X116.43 Y143.396 E3.43373
G1 X116.43 Y143.93 E.01677
G1 X38.57 Y66.07 E3.45745
G1 X38.57 Y66.604 E.01677
G1 X115.896 Y143.93 E3.43374
G1 X115.362 Y143.93 E.01677
G1 X38.57 Y67.138 E3.41002
G1 X38.57 Y67.672 E.01677
M73 P7 R98
G1 X114.828 Y143.93 E3.38631
G1 X114.294 Y143.93 E.01677
G1 X38.57 Y68.206 E3.36259
G1 X38.57 Y68.74 E.01677
M73 P8 R98
G1 X113.76 Y143.93 E3.33888
G1 X113.226 Y143.93 E.01677
M73 Q8 S99
G1 X38.57 Y69.274 E3.31516
G1 X38.57 Y69.808 E.01677
M73 Q8 S98
G1 X112.692 Y143.93 E3.29145
G1 X112.158 Y143.93 E.01677
G1 X38.57 Y70.342 E3.26773
G1 X38.57 Y70.876 E.01677
G1 X111.624 Y143.93 E3.24402
G1 X111.09 Y143.93 E.01677
G1 X38.57 Y71.41 E3.2203
G1 X38.57 Y71.944 E.01677
G1 X110.556 Y143.93 E3.19659
G1 X110.022 Y143.93 E.01677
G1 X38.57 Y72.478 E3.17288
G1 X38.57 Y73.012 E.01677
