; generated by PrusaSlicer 2.4.1+x64 on 2022-03-21 at 17:56:44 UTC

; 

; external perimeters extrusion width = 0.60mm
; perimeters extrusion width = 0.50mm
; infill extrusion width = 0.50mm
; solid infill extrusion width = 0.50mm
; top infill extrusion width = 0.45mm
; first layer extrusion width = 0.42mm

M73 P0 R126
M73 Q0 S126
M201 X1000 Y1000 Z200 E5000 ; sets maximum accelerations, mm/sec^2
M203 X200 Y200 Z12 E120 ; sets maximum feedrates, mm / sec
M204 P1250 R1250 T1250 ; sets acceleration (P, T) and retract acceleration (R), mm/sec^2
M205 X8.00 Y8.00 Z0.40 E4.50 ; sets the jerk limits, mm/sec
M205 S0 T0 ; sets the minimum extruding and travel feed rate, mm/sec
M107
;TYPE:Custom
M862.3 P "MK3S" ; printer model check
M862.1 P0.4 ; nozzle diameter check
M115 U3.10.1 ; tell printer latest fw version
G90 ; use absolute coordinates
M83 ; extruder relative mode
M104 S215 ; set extruder temp
M140 S60 ; set bed temp
M190 S60 ; wait for bed temp
M109 S215 ; wait for extruder temp
G28 W ; home all without mesh bed level
G80 ; mesh bed leveling
G1 Z0.2 F720
G1 Y-3 F1000 ; go outside print area
G92 E0
G1 X60 E9 F1000 ; intro line
G1 X100 E12.5 F1000 ; intro line
G92 E0
M221 S95

; Don't change E values below. Excessive value can damage the printer.

M907 E538 ; set extruder motor current
G21 ; set units to millimeters
G90 ; use absolute coordinates
M83 ; use relative distances for extrusion
M900 K0.05 ; Filament gcode LA 1.5
M900 K30 ; Filament gcode LA 1.0
M107
;LAYER_CHANGE
;Z:0.2
;HEIGHT:0.2
;BEFORE_LAYER_CHANGE
G92 E0.0
;0.2


G1 E-.8 F2100
G1 Z.4 F720
;AFTER_LAYER_CHANGE
;0.2
G1 X38.06 Y62.817 F10800
G1 Z.2 F720
G1 E.8 F2100
M204 S800
;TYPE:Skirt/Brim
;WIDTH:0.42
G1 F1200
G1 X39 Y62.623 E.03008
G1 X211 Y62.623 E5.39294
G1 X212.307 Y63.015 E.04278
G1 X213.183 Y64.06 E.04278
G1 X213.377 Y65 E.03008
G1 X213.377 Y145 E2.50834
G1 X212.985 Y146.307 E.04278
G1 X211.94 Y147.183 E.04278
G1 X211 Y147.377 E.03008
G1 X39 Y147.377 E5.39294
G1 X37.693 Y146.985 E.04278
M73 P0 R125
G1 X36.817 Y145.94 E.04278
G1 X36.623 Y145 E.03008
G1 X36.623 Y65 E2.50834
G1 X37.015 Y63.693 E.04278
G1 X38.014 Y62.855 E.0409
M204 S1000
; printing object cable-case.stl id:0 copy 0
;WIPE_START
G1 F8640
G1 X39 Y62.623 E-.23384
G1 X41.279 Y62.623 E-.52616
;WIPE_END
G1 E-.04 F2100
G1 Z.6 F720
G1 X167.172 Y105 F10800
G1 Z.2 F720
G1 E.8 F2100
M204 S800
;TYPE:Perimeter
G1 F1200
G1 X167.903 Y102.75 E.07417
G1 X169.817 Y101.36 E.07417
G1 X172.183 Y101.36 E.07417
G1 X174.097 Y102.75 E.07417
G1 X174.828 Y105 E.07417
G1 X174.097 Y107.25 E.07417
G1 X172.183 Y108.64 E.07417
G1 X169.817 Y108.64 E.07417
G1 X167.903 Y107.25 E.07417
G1 X167.191 Y105.057 E.07229
M204 S1000
G1 X167.583 Y104.957 F10800
M204 S800
;TYPE:External perimeter
G1 F1200
G1 X168.224 Y102.983 E.06508
G1 X169.94 Y101.737 E.06649
G1 X172.06 Y101.737 E.06648
G1 X173.776 Y102.983 E.06649
G1 X174.431 Y105 E.06649
G1 X173.776 Y107.017 E.06649
G1 X172.06 Y108.263 E.06649
G1 X169.94 Y108.263 E.06648
G1 X168.224 Y107.017 E.06649
G1 X167.574 Y105.014 E.06602
M204 S1000
G1 X167.237 Y104.756 F10800
;WIPE_START
G1 F8640
G1 X168.224 Y102.983 E-.49245
G1 X169.162 Y102.302 E-.26755
;WIPE_END
G1 E-.04 F2100
G1 Z.6 F720
G1 X131.787 Y65.787 F10800
G1 Z.2 F720
G1 E.8 F2100
M204 S800
;TYPE:Perimeter
G1 F1200
G1 X210.213 Y65.787 E2.45899
G1 X210.213 Y144.213 E2.45899
G1 X131.787 Y144.213 E2.45899
G1 X131.787 Y65.847 E2.45711
M204 S1000
G1 X131.41 Y65.41 F10800
M204 S800
;TYPE:External perimeter
M73 Q0 S125
G1 F1200
G1 X210.59 Y65.41 E2.48263
G1 X210.59 Y144.59 E2.48263
G1 X131.41 Y144.59 E2.48263
G1 X131.41 Y65.47 E2.48075
M204 S1000
G1 X131.796 Y65.514 F10800
;WIPE_START
G1 F8640
G1 X134.701 Y65.468 E-.76
;WIPE_END
G1 E-.04 F2100
G1 Z.6 F720
G1 X209.336 Y65.9 F10800
G1 Z.2 F720
G1 E.8 F2100
M204 S800
;TYPE:Solid infill
;WIDTH:0.420545
G1 F1200
G1 X209.93 Y66.494 E.02637
G1 X209.93 Y67.028 E.01677
G1 X208.972 Y66.07 E.04255
G1 X208.438 Y66.07 E.01677
G1 X209.93 Y67.562 E.06626
G1 X209.93 Y68.096 E.01677
G1 X207.904 Y66.07 E.08997
G1 X207.37 Y66.07 E.01677
G1 X209.93 Y68.63 E.11369
G1 X209.93 Y69.164 E.01677
G1 X206.836 Y66.07 E.1374
G1 X206.302 Y66.07 E.01677
G1 X209.93 Y69.698 E.16112
G1 X209.93 Y70.232 E.01677
G1 X205.768 Y66.07 E.18483
G1 X205.234 Y66.07 E.01677
G1 X209.93 Y70.766 E.20855
G1 X209.93 Y71.3 E.01677
G1 X204.7 Y66.07 E.23226
G1 X204.166 Y66.07 E.01677
G1 X209.93 Y71.834 E.25598
G1 X209.93 Y72.368 E.01677
G1 X203.632 Y66.07 E.27969
G1 X203.098 Y66.07 E.01677
G1 X209.93 Y72.902 E.30341
G1 X209.93 Y73.436 E.01677
G1 X202.564 Y66.07 E.32712
G1 X202.029 Y66.07 E.01677
G1 X209.93 Y73.971 E.35083
G1 X209.93 Y74.505 E.01677
G1 X201.495 Y66.07 E.37455
G1 X200.961 Y66.07 E.01677
M73 Q1 S125
G1 X209.93 Y75.039 E.39826
G1 X209.93 Y75.573 E.01677
M73 P1 R125
G1 X200.427 Y66.07 E.42198
G1 X199.893 Y66.07 E.01677
G1 X209.93 Y76.107 E.44569
G1 X209.93 Y76.641 E.01677
G1 X199.359 Y66.07 E.46941
G1 X198.825 Y66.07 E.01677
G1 X209.93 Y77.175 E.49312
G1 X209.93 Y77.709 E.01677
G1 X198.291 Y66.07 E.51684
G1 X197.757 Y66.07 E.01677
G1 X209.93 Y78.243 E.54055
G1 X209.93 Y78.777 E.01677
G1 X197.223 Y66.07 E.56427
G1 X196.689 Y66.07 E.01677
G1 X209.93 Y79.311 E.58798
G1 X209.93 Y79.845 E.01677
G1 X196.155 Y66.07 E.6117
G1 X195.621 Y66.07 E.01677
G1 X209.93 Y80.379 E.63541
G1 X209.93 Y80.913 E.01677
G1 X195.087 Y66.07 E.65912
G1 X194.553 Y66.07 E.01677
G1 X209.93 Y81.447 E.68284
G1 X209.93 Y81.981 E.01677
G1 X194.019 Y66.07 E.70655
G1 X193.485 Y66.07 E.01677
G1 X209.93 Y82.515 E.73027
G1 X209.93 Y83.049 E.01677
M73 P1 R124
G1 X192.951 Y66.07 E.75398
G1 X192.417 Y66.07 E.01677
G1 X209.93 Y83.583 E.7777
G1 X209.93 Y84.117 E.01677
G1 X191.883 Y66.07 E.80141
G1 X191.349 Y66.07 E.01677
G1 X209.93 Y84.651 E.82513
G1 X209.93 Y85.185 E.01677
G1 X190.815 Y66.07 E.84884
G1 X190.281 Y66.07 E.01677
G1 X209.93 Y85.719 E.87256
G1 X209.93 Y86.253 E.01677
G1 X189.747 Y66.07 E.89627
G1 X189.212 Y66.07 E.01677
G1 X209.93 Y86.788 E.91998
G1 X209.93 Y87.322 E.01677
G1 X188.678 Y66.07 E.9437
G1 X188.144 Y66.07 E.01677
G1 X209.93 Y87.856 E.96741
G1 X209.93 Y88.39 E.01677
G1 X187.61 Y66.07 E.99113
G1 X187.076 Y66.07 E.01677
G1 X209.93 Y88.924 E1.01484
G1 X209.93 Y89.458 E.01677
G1 X186.542 Y66.07 E1.03856
G1 X186.008 Y66.07 E.01677
G1 X209.93 Y89.992 E1.06227
G1 X209.93 Y90.526 E.01677
G1 X185.474 Y66.07 E1.08599
G1 X184.94 Y66.07 E.01677
M73 Q1 S124
G1 X209.93 Y91.06 E1.1097
G1 X209.93 Y91.594 E.01677
G1 X184.406 Y66.07 E1.13342
G1 X183.872 Y66.07 E.01677
G1 X209.93 Y92.128 E1.15713
G1 X209.93 Y92.662 E.01677
G1 X183.338 Y66.07 E1.18085
G1 X182.804 Y66.07 E.01677
G1 X209.93 Y93.196 E1.20456
G1 X209.93 Y93.73 E.01677
G1 X182.27 Y66.07 E1.22827
G1 X181.736 Y66.07 E.01677
G1 X209.93 Y94.264 E1.25199
G1 X209.93 Y94.798 E.01677
G1 X181.202 Y66.07 E1.2757
G1 X180.668 Y66.07 E.01677
G1 X209.93 Y95.332 E1.29942
G1 X209.93 Y95.866 E.01677
G1 X180.134 Y66.07 E1.32313
G1 X179.6 Y66.07 E.01677
G1 X209.93 Y96.4 E1.34685
G1 X209.93 Y96.934 E.01677
G1 X179.066 Y66.07 E1.37056
G1 X178.532 Y66.07 E.01677
G1 X209.93 Y97.468 E1.39428
G1 X209.93 Y98.002 E.01677
G1 X177.998 Y66.07 E1.41799
G1 X177.464 Y66.07 E.01677
G1 X209.93 Y98.536 E1.44171
G1 X209.93 Y99.071 E.01677
G1 X176.929 Y66.07 E1.46542
G1 X176.395 Y66.07 E.01677
G1 X209.93 Y99.605 E1.48913
G1 X209.93 Y100.139 E.01677
G1 X175.861 Y66.07 E1.51285
G1 X175.327 Y66.07 E.01677
M73 P1 R123
G1 X209.93 Y100.673 E1.53656
G1 X209.93 Y101.207 E.01677
M73 P2 R123
M73 Q2 S124
G1 X174.793 Y66.07 E1.56028
G1 X174.259 Y66.07 E.01677
G1 X209.93 Y101.741 E1.58399
G1 X209.93 Y102.275 E.01677
G1 X173.725 Y66.07 E1.60771
G1 X173.191 Y66.07 E.01677
G1 X209.93 Y102.809 E1.63142
G1 X209.93 Y103.343 E.01677
G1 X172.657 Y66.07 E1.65514
G1 X172.123 Y66.07 E.01677
G1 X209.93 Y103.877 E1.67885
G1 X209.93 Y104.411 E.01677
G1 X171.589 Y66.07 E1.70257
G1 X171.055 Y66.07 E.01677
M73 Q2 S123
G1 X209.93 Y104.945 E1.72628
G1 X209.93 Y105.479 E.01677
G1 X170.521 Y66.07 E1.75
G1 X169.987 Y66.07 E.01677
G1 X209.93 Y106.013 E1.77371
G1 X209.93 Y106.547 E.01677
G1 X169.453 Y66.07 E1.79742
G1 X168.919 Y66.07 E.01677
G1 X209.93 Y107.081 E1.82114
G1 X209.93 Y107.615 E.01677
G1 X168.385 Y66.07 E1.84485
G1 X167.851 Y66.07 E.01677
G1 X209.93 Y108.149 E1.86857
G1 X209.93 Y108.683 E.01677
G1 X167.317 Y66.07 E1.89228
G1 X166.783 Y66.07 E.01677
G1 X209.93 Y109.217 E1.916
G1 X209.93 Y109.751 E.01677
G1 X166.249 Y66.07 E1.93971
G1 X165.715 Y66.07 E.01677
G1 X209.93 Y110.285 E1.96343
G1 X209.93 Y110.819 E.01677
G1 X165.181 Y66.07 E1.98714
G1 X164.647 Y66.07 E.01677
G1 X209.93 Y111.353 E2.01086
G1 X209.93 Y111.888 E.01677
M73 P2 R122
G1 X164.112 Y66.07 E2.03457
G1 X163.578 Y66.07 E.01677
G1 X209.93 Y112.422 E2.05828
G1 X209.93 Y112.956 E.01677
G1 X163.044 Y66.07 E2.082
G1 X162.51 Y66.07 E.01677
G1 X209.93 Y113.49 E2.10571
G1 X209.93 Y114.024 E.01677
G1 X161.976 Y66.07 E2.12943
G1 X161.442 Y66.07 E.01677
G1 X209.93 Y114.558 E2.15314
G1 X209.93 Y115.092 E.01677
M73 P3 R122
M73 Q3 S122
G1 X160.908 Y66.07 E2.17686
G1 X160.374 Y66.07 E.01677
G1 X209.93 Y115.626 E2.20057
G1 X209.93 Y116.16 E.01677
G1 X159.84 Y66.07 E2.22429
G1 X159.306 Y66.07 E.01677
G1 X209.93 Y116.694 E2.248
G1 X209.93 Y117.228 E.01677
G1 X158.772 Y66.07 E2.27172
G1 X158.238 Y66.07 E.01677
G1 X209.93 Y117.762 E2.29543
G1 X209.93 Y118.296 E.01677
G1 X157.704 Y66.07 E2.31915
G1 X157.17 Y66.07 E.01677
G1 X209.93 Y118.83 E2.34286
G1 X209.93 Y119.364 E.01677
G1 X156.636 Y66.07 E2.36657
G1 X156.102 Y66.07 E.01677
G1 X209.93 Y119.898 E2.39029
G1 X209.93 Y120.432 E.01677
G1 X155.568 Y66.07 E2.414
G1 X155.034 Y66.07 E.01677
M73 P3 R121
G1 X209.93 Y120.966 E2.43772
G1 X209.93 Y121.5 E.01677
G1 X154.5 Y66.07 E2.46143
G1 X153.966 Y66.07 E.01677
G1 X209.93 Y122.034 E2.48515
G1 X209.93 Y122.568 E.01677
G1 X153.432 Y66.07 E2.50886
G1 X152.898 Y66.07 E.01677
G1 X209.93 Y123.102 E2.53258
G1 X209.93 Y123.636 E.01677
M73 Q3 S121
G1 X152.364 Y66.07 E2.55629
G1 X151.83 Y66.07 E.01677
G1 X209.93 Y124.171 E2.58001
G1 X209.93 Y124.705 E.01677
G1 X151.295 Y66.07 E2.60372
G1 X150.761 Y66.07 E.01677
M73 P4 R121
M73 Q4 S121
G1 X209.93 Y125.239 E2.62743
G1 X209.93 Y125.773 E.01677
G1 X150.227 Y66.07 E2.65115
G1 X149.693 Y66.07 E.01677
G1 X209.93 Y126.307 E2.67486
G1 X209.93 Y126.841 E.01677
G1 X149.159 Y66.07 E2.69858
G1 X148.625 Y66.07 E.01677
G1 X209.93 Y127.375 E2.72229
G1 X209.93 Y127.909 E.01677
G1 X148.091 Y66.07 E2.74601
G1 X147.557 Y66.07 E.01677
M73 P4 R120
G1 X209.93 Y128.443 E2.76972
G1 X209.93 Y128.977 E.01677
G1 X147.023 Y66.07 E2.79344
G1 X146.489 Y66.07 E.01677
G1 X209.93 Y129.511 E2.81715
G1 X209.93 Y130.045 E.01677
G1 X145.955 Y66.07 E2.84087
G1 X145.421 Y66.07 E.01677
G1 X209.93 Y130.579 E2.86458
G1 X209.93 Y131.113 E.01677
M73 Q4 S120
G1 X144.887 Y66.07 E2.8883
G1 X144.353 Y66.07 E.01677
G1 X209.93 Y131.647 E2.91201
G1 X209.93 Y132.181 E.01677
G1 X143.819 Y66.07 E2.93572
G1 X143.285 Y66.07 E.01677
G1 X209.93 Y132.715 E2.95944
G1 X209.93 Y133.249 E.01677
G1 X142.751 Y66.07 E2.98315
G1 X142.217 Y66.07 E.01677
G1 X209.93 Y133.783 E3.00687
G1 X209.93 Y134.317 E.01677
M73 P5 R120
M73 Q5 S120
G1 X141.683 Y66.07 E3.03058
G1 X141.149 Y66.07 E.01677
G1 X209.93 Y134.851 E3.0543
G1 X209.93 Y135.385 E.01677
M73 P5 R119
G1 X140.615 Y66.07 E3.07801
G1 X140.081 Y66.07 E.01677
G1 X209.93 Y135.919 E3.10173
G1 X209.93 Y136.453 E.01677
G1 X139.547 Y66.07 E3.12544
G1 X139.012 Y66.07 E.01677
G1 X209.93 Y136.988 E3.14916
G1 X209.93 Y137.522 E.01677
M73 Q5 S119
G1 X138.478 Y66.07 E3.17287
G1 X137.944 Y66.07 E.01677
G1 X209.93 Y138.056 E3.19658
G1 X209.93 Y138.59 E.01677
G1 X174.54 Y103.199 E1.57154
G1 X174.337 Y102.575 E.0206
G1 X172.797 Y101.456 E.05978
G1 X137.41 Y66.07 E1.57136
G1 X136.876 Y66.07 E.01677
G1 X171.883 Y101.077 E1.55452
G1 X171.349 Y101.077 E.01677
G1 X136.342 Y66.07 E1.55452
G1 X135.808 Y66.07 E.01677
G1 X170.815 Y101.077 E1.55452
G1 X170.281 Y101.077 E.01677
G1 X135.274 Y66.07 E1.55452
G1 X134.74 Y66.07 E.01677
G1 X169.747 Y101.077 E1.55452
G1 X169.429 Y101.292 E.01208
G1 X134.206 Y66.07 E1.56409
G1 X133.672 Y66.07 E.01677
G1 X169.119 Y101.517 E1.57407
G1 X168.81 Y101.742 E.01201
G1 X133.138 Y66.07 E1.58405
G1 X132.604 Y66.07 E.01677
G1 X168.501 Y101.967 E1.59403
G1 X168.191 Y102.191 E.01201
M73 P5 R118
G1 X132.07 Y66.07 E1.60401
G1 X132.07 Y66.604 E.01677
G1 X167.882 Y102.416 E1.59027
G1 X167.663 Y102.575 E.00851
G1 X167.625 Y102.693 E.00388
G1 X132.07 Y67.138 E1.57884
G1 X132.07 Y67.672 E.01677
M73 P6 R118
M73 Q6 S119
G1 X167.494 Y103.096 E1.57303
G1 X167.363 Y103.499 E.01331
G1 X132.07 Y68.206 E1.56721
G1 X132.07 Y68.74 E.01677
G1 X167.232 Y103.902 E1.5614
G1 X167.101 Y104.305 E.01331
G1 X132.07 Y69.274 E1.55558
G1 X132.07 Y69.808 E.01677
G1 X166.97 Y104.708 E1.54976
G1 X166.875 Y105 E.00964
G1 X166.946 Y105.218 E.00721
G1 X132.07 Y70.342 E1.5487
G1 X132.07 Y70.876 E.01677
M73 Q6 S118
G1 X167.467 Y106.274 E1.57185
M204 S1000
;WIPE_START
G1 F8640
G1 X165.14 Y103.946 E-.76
;WIPE_END
G1 E-.04 F2100
G1 Z.6 F720
G1 X174.533 Y103.726 F10800
G1 Z.2 F720
G1 E.8 F2100
M204 S800
G1 F1200
G1 X209.93 Y139.124 E1.57186
G1 X209.93 Y139.658 E.01677
G1 X175.054 Y104.782 E1.54871
G1 X175.125 Y105 E.00721
G1 X175.03 Y105.292 E.00963
G1 X209.93 Y140.192 E1.54976
G1 X209.93 Y140.726 E.01677
G1 X174.899 Y105.695 E1.55558
G1 X174.768 Y106.098 E.01331
G1 X209.93 Y141.26 E1.56139
G1 X209.93 Y141.794 E.01677
G1 X174.637 Y106.501 E1.56721
G1 X174.506 Y106.904 E.01331
G1 X209.93 Y142.328 E1.57303
G1 X209.93 Y142.862 E.01677
G1 X174.375 Y107.307 E1.57884
G1 X174.337 Y107.425 E.00388
G1 X174.118 Y107.584 E.0085
G1 X209.93 Y143.396 E1.59027
G1 X209.93 Y143.93 E.01677
G1 X173.809 Y107.809 E1.604
G1 X173.499 Y108.033 E.01201
G1 X209.396 Y143.93 E1.59403
G1 X208.862 Y143.93 E.01677
G1 X173.19 Y108.258 E1.58405
G1 X172.881 Y108.483 E.01201
G1 X208.328 Y143.93 E1.57407
G1 X207.794 Y143.93 E.01677
G1 X172.571 Y108.707 E1.56409
G1 X172.253 Y108.923 E.01208
M73 P6 R117
G1 X207.26 Y143.93 E1.55452
G1 X206.726 Y143.93 E.01677
G1 X171.719 Y108.923 E1.55452
G1 X171.185 Y108.923 E.01677
G1 X206.192 Y143.93 E1.55452
G1 X205.658 Y143.93 E.01677
G1 X170.651 Y108.923 E1.55452
G1 X170.117 Y108.923 E.01677
G1 X205.124 Y143.93 E1.55452
G1 X204.59 Y143.93 E.01677
G1 X169.204 Y108.544 E1.57135
G1 X167.663 Y107.425 E.0598
G1 X167.46 Y106.8 E.02061
G1 X132.07 Y71.41 E1.57153
G1 X132.07 Y71.944 E.01677
G1 X204.056 Y143.93 E3.19659
G1 X203.522 Y143.93 E.01677
M73 P7 R117
M73 Q7 S117
G1 X132.07 Y72.478 E3.17288
G1 X132.07 Y73.012 E.01677
G1 X202.988 Y143.93 E3.14916
G1 X202.454 Y143.93 E.01677
G1 X132.07 Y73.546 E3.12545
G1 X132.07 Y74.08 E.01677
G1 X201.92 Y143.93 E3.10173
G1 X201.386 Y143.93 E.01677
G1 X132.07 Y74.614 E3.07802
G1 X132.07 Y75.149 E.01677
G1 X200.851 Y143.93 E3.0543
G1 X200.317 Y143.93 E.01677
G1 X132.07 Y75.683 E3.03059
G1 X132.07 Y76.217 E.01677
G1 X199.783 Y143.93 E3.00687
G1 X199.249 Y143.93 E.01677
M73 P7 R116
G1 X132.07 Y76.751 E2.98316
G1 X132.07 Y77.285 E.01677
G1 X198.715 Y143.93 E2.95944
G1 X198.181 Y143.93 E.01677
G1 X132.07 Y77.819 E2.93573
G1 X132.07 Y78.353 E.01677
G1 X197.647 Y143.93 E2.91202
G1 X197.113 Y143.93 E.01677
M73 Q7 S116
G1 X132.07 Y78.887 E2.8883
G1 X132.07 Y79.421 E.01677
G1 X196.579 Y143.93 E2.86459
G1 X196.045 Y143.93 E.01677
G1 X132.07 Y79.955 E2.84087
G1 X132.07 Y80.489 E.01677
G1 X195.511 Y143.93 E2.81716
G1 X194.977 Y143.93 E.01677
M73 P8 R116
M73 Q8 S116
G1 X132.07 Y81.023 E2.79344
G1 X132.07 Y81.557 E.01677
G1 X194.443 Y143.93 E2.76973
G1 X193.909 Y143.93 E.01677
G1 X132.07 Y82.091 E2.74601
G1 X132.07 Y82.625 E.01677
G1 X193.375 Y143.93 E2.7223
G1 X192.841 Y143.93 E.01677
G1 X132.07 Y83.159 E2.69858
G1 X132.07 Y83.693 E.01677
M73 P8 R115
G1 X192.307 Y143.93 E2.67487
G1 X191.773 Y143.93 E.01677
G1 X132.07 Y84.227 E2.65115
G1 X132.07 Y84.761 E.01677
G1 X191.239 Y143.93 E2.62744
G1 X190.705 Y143.93 E.01677
G1 X132.07 Y85.295 E2.60373
G1 X132.07 Y85.829 E.01677
G1 X190.171 Y143.93 E2.58001
G1 X189.637 Y143.93 E.01677
M73 Q8 S115
G1 X132.07 Y86.363 E2.5563
G1 X132.07 Y86.897 E.01677
G1 X189.103 Y143.93 E2.53258
G1 X188.569 Y143.93 E.01677
G1 X132.07 Y87.431 E2.50887
G1 X132.07 Y87.966 E.01677
